dist/svg/server-group.svg

<!-- Generated by Trend Micro Style Portal -->
<svg version="1.1" xmlns="http://www.w3.org/2000/svg" width="16" height="16" viewBox="0 0 16 16">
  <title>server-group</title>
  <path fill="rgb(34,34,34)" d="M5 1v3h11v-3zM10 3h-3v-1h3zM16 8h-4v-3h4zM16 12h-4v-3h4zM11 8v-3h-11v3zM2 6h3v1h-3zM11 12v-3h-11v3zM2 10h3v1h-3zM11 16v-3h-11v3zM2 14h3v1h-3z"></path>
</svg>

<svg width="16" height="16" viewBox="0 0 16 16" fill="rgb(34, 34, 34)" xmlns="http://www.w3.org/2000/svg"><title>server-group</title><path d="M5 1V4H16V1H5ZM10 3H7V2H10V3ZM16 8H12V5H16V8ZM16 12H12V9H16V12ZM11 8V5H0V8H11ZM2 6H5V7H2V6ZM11 12V9H0V12H11ZM2 10H5V11H2V10ZM11 16V13H0V16H11ZM2 14H5V15H2V14Z" fill="rgb(34, 34, 34)" fill-opacity="1.00"/></svg>
